source/img/icon-sprite/logo-htmlacademy.svg

<svg width="27" height="34" viewBox="0 0 27 34" fill="none" xmlns="http://www.w3.org/2000/svg">
<path d="M13.6506 0H13.5502L0 1.39589V26.0235L13.5502 34L27 26.0235V1.39589L13.6506 0ZM25.0929 12.0645L13.5502 5.28446V5.18475H13.4498L13.3494 5.08504V5.18475L1.90706 12.0645V3.09091L13.4498 1.89443L25.0929 3.09091V12.0645ZM13.4498 6.78006L24.9926 13.4604L20.4758 16.0528L13.3494 11.8651V13.261L19.2714 16.7507L18.368 17.2493L13.3494 14.2581V15.654L17.1636 17.9472L16.3606 18.4457L13.3494 16.651V18.0469L15.2565 19.1437L13.4498 20.2405L2.00744 13.5601L13.4498 6.78006ZM1.90706 15.0557L13.3494 21.8358V22.8328L5.42007 18.1466V19.5425L13.4498 24.3284V25.4252L5.42007 20.739V22.1349L13.4498 26.9208L21.5799 22.0352V16.8504L24.9926 14.8563V24.827L13.4498 31.7067L1.90706 24.9267V15.0557Z" fill="currentColor"/>
</svg>

<svg viewBox="0 0 27 34" fill="none" xmlns="http://www.w3.org/2000/svg"><path d="M13.65 0h-.1L0 1.396v24.627L13.55 34 27 26.023V1.396L13.65 0Zm11.443 12.065L13.55 5.285v-.1h-.1l-.1-.1v.1l-11.443 6.88V3.09L13.45 1.894l11.643 1.197v8.974ZM13.45 6.78l11.543 6.68-4.517 2.593-7.127-4.188v1.396l5.922 3.49-.903.498-5.019-2.99v1.395l3.815 2.293-.803.499-3.012-1.795v1.396l1.908 1.097-1.807 1.097-11.443-6.68L13.45 6.78ZM1.907 15.056l11.442 6.78v.997L5.42 18.147v1.396l8.03 4.785v1.097L5.42 20.74v1.396l8.03 4.786 8.13-4.886V16.85l3.413-1.994v9.971l-11.543 6.88-11.543-6.78v-9.871Z" fill="currentColor"/></svg>
